X: 2057
T: Âh ile Gönül...
C: Lavtacı Hristo
O: Turkey
F: http://compmusic.upf.edu/node/140
N: huseyni--sarki--senginsemai--ah_ile--lavtaci_hristo
N: makam= huseyni
N: form= sarki
N: usul= senginsemai = 6/4
M: 6/4
L: 1/16
K: C _2/4B ^3/4f  
Q: 1/4=66
%%MIDI tuningsystem comma53
f2g2 a4 a2gf ac'ba a6g2  | fgab c'2ba a3g g2fg e6d2  | 
w:  ARANAĞME  |   | 
e3f g2a2 g2=f2 e2d2 dcde c2BA  | A4 gfed c3B cBBA A8  | 
w:   |   | 
f2g2 a4 a2gf ac'ba a6g2  | fgab c'2ba a3g g2fg e6d2  | 
w:  ARANAĞME  |   | 
e3f g2a2 g2=f2 e2d2 dcde c2BA  | A4 gfed c3B cBBA A8  | 
w:   |   | 
d3e e2f2 g2a2 g2fg e6d2  | e2=fg e2d2 c2d2 cBBA A8  | 
w:  Âh_ *  i *  le  *  gö *  *  nül   |  hac *  *  *  *  le  *  i  *  *  *  dil  | 
A3B c2d2 e2f2 d2a2 ag2f fgfe  | e8 d4 egfg e8  | 
w:  dâ *  *  *  re  *  da *  yan  |  sın   SAZ  | 
d3e e2f2 g2a2 g2fg e6d2  | e2fg e2d2 c2d2 cBBA A3c BAG2  | 
w:  Nâz_ *  uy *  ku *  su *  *  na   |  yat *  *  *  *  mış  *  o  *  *  *  meh  | 
c2d4c2 e3d c2d2 c3B B2{c}BA  | A3B c2d2 e3d g2fg e8  | 
w:  pâ *  *  re  *  u *  yan  |  sın   SAZ  | 
d3e e2f2 g2a2 g2fg e6d2  | e2fg e2d2 c2d2 cBBA A3c BAG2  | 
w:  Nâz_ *  uy *  ku *  su *  *  na   |  yat *  *  *  *  mış  *  o  *  *  *  meh  | 
c2d4c2 e3d c2d2 c3B B2{c}BA  | A4 a4 a3g fefg a8  | 
w:  pâ *  *  re  *  u *  yan  |  sın   SAZ  | 
g3a a4 a2g2 a2ba a6g2  | fga_1/4b c'2b2 a4 g2a2 _2/4baga g2f2  | 
w:  Gül  *  pi re *  he *  *  ni   |  â *  *  *  *  *  teş_ i  *  hic  | 
f2ef g2a2 b3a g2a2 g3f fefg  | e8 d4 egfg e8  | 
w:  *  rân  *  *  *  i *  le  *  yan  |  sın   SAZ  | 
d3e e2f2 g2a2 g2fg e6d2  | e2fg e2d2 c2d2 cBBA A3c BAG2  | 
w:  Nâz_ *  uy *  ku *  su *  *  na   |  yat *  *  *  *  mış  *  o  *  *  *  meh  | 
c2d4c2 e3d c2d2 c3B B2{c}BA  | A3B c2d2 e3d g2fg e8  | 
w:  pâ *  *  re  *  u *  yan  |  sın   SAZ  | 
d3e e2f2 g2a2 g2fg e6d2  | e2fg e2d2 c2d2 cBBA A3c BAG2  | 
w:  Nâz_ *  uy *  ku *  su *  *  na   |  yat *  *  *  *  mış  *  o  *  *  *  meh  | 
c2d4c2 e3d c2d2 c3B B2{c}BA  | A4 |
w:  pâ *  *  re  *  u *  yan  |  sın    | 


